src/assets/icons/special-projects.svg

<svg width="32" height="32" viewBox="0 0 32 32" fill="none" xmlns="http://www.w3.org/2000/svg">
<g clip-path="url(#clip0_2409_4814)">
<path d="M20.3641 13.5213L3.0881 30.8C2.83774 31.0504 2.49817 31.191 2.1441 31.191C1.79003 31.191 1.45046 31.0504 1.2001 30.8C0.949735 30.5496 0.809082 30.2101 0.809082 29.856C0.809082 29.5019 0.949735 29.1624 1.2001 28.912L18.4788 11.636" stroke="#353434" stroke-width="1.5" stroke-linecap="round" stroke-linejoin="round"/>
<path d="M30.8122 10.5587C31.1789 10.5587 31.2976 10.3067 31.0789 10.0147L28.5922 6.71738L29.9082 2.53338C30.0176 2.18405 29.8216 1.98672 29.4722 2.09738L25.2829 3.41338L21.9856 0.922717C21.6936 0.702717 21.4522 0.821384 21.4416 1.18938L21.3576 5.86672L17.3456 8.18805C17.0282 8.37205 17.0549 8.61072 17.4056 8.72138L21.8816 10.1201L23.2802 14.5961C23.3896 14.9467 23.6282 14.9734 23.8136 14.6561L26.1336 10.6427L30.8122 10.5587Z" stroke="#353434" stroke-width="1.5" stroke-linecap="round" stroke-linejoin="round"/>
</g>
<defs>
<clipPath id="clip0_2409_4814">
<rect width="32" height="32" fill="white"/>
</clipPath>
</defs>
</svg>

<svg xmlns="http://www.w3.org/2000/svg" width="32" height="32" fill="none"><g stroke="#353434" stroke-linecap="round" stroke-linejoin="round" stroke-width="1.5" clip-path="url(#a)"><path d="M20.3641 13.5213 3.0881 30.8a1.335 1.335 0 0 1-1.888 0 1.335 1.335 0 0 1 0-1.888l17.2787-17.276M30.812 10.5587c.3667 0 .4853-.252.2667-.544L28.592 6.7173l1.316-4.184c.1093-.3493-.0867-.5466-.436-.436l-4.1893 1.316L21.9853.9227c-.292-.22-.5333-.1014-.544.2666l-.084 4.6774-4.012 2.3213c-.3173.184-.2906.4227.06.5333l4.476 1.3987 1.3987 4.476c.1093.3507.348.3773.5333.06l2.32-4.0133z"/></g><defs><clipPath id="a"><path fill="#fff" d="M0 0h32v32H0z"/></clipPath></defs></svg>
